img/brightness-auto.svg

<svg width="18" height="18" viewBox="0 0 18 18" fill="none" xmlns="http://www.w3.org/2000/svg">
<path d="M9.75 3.75V0.75H8.25V3.75H9.75Z" fill="white"/>
<path d="M5.81802 4.75736L3.6967 2.63604L2.63604 3.6967L4.75736 5.81802L5.81802 4.75736Z" fill="white"/>
<path fill-rule="evenodd" clip-rule="evenodd" d="M9.18962 12.7453L9.95876 11.0361C9.6679 11.1733 9.34291 11.25 9 11.25C7.75736 11.25 6.75 10.2426 6.75 9C6.75 7.75736 7.75736 6.75 9 6.75C10.0229 6.75 10.8864 7.43261 11.1598 8.36716L11.9289 6.65798C11.2417 5.79968 10.185 5.25 9 5.25C6.92893 5.25 5.25 6.92893 5.25 9C5.25 11.0711 6.92893 12.75 9 12.75C9.06359 12.75 9.12681 12.7484 9.18962 12.7453Z" fill="white"/>
<path d="M5.81802 13.2426L4.75736 12.182L2.63604 14.3033L3.6967 15.364L5.81802 13.2426Z" fill="white"/>
<path d="M3.75 9.75V8.25H0.75V9.75H3.75Z" fill="white"/>
<path d="M14.3033 2.63604L15.364 3.6967L13.2426 5.81802L12.182 4.75736L14.3033 2.63604Z" fill="white"/>
<path d="M11.1187 17H9L12.2283 8H14.7763L18 17H15.8813L13.5388 10.0566H13.4658L11.1187 17ZM10.9863 13.4624H15.9909V14.9478H10.9863V13.4624Z" fill="white"/>
</svg>

<?xml version="1.0" encoding="UTF-8"?>
<svg id="Layer_1" xmlns="http://www.w3.org/2000/svg" version="1.1" viewBox="0 0 18 18">
  <!-- Generator: Adobe Illustrator 29.6.1, SVG Export Plug-In . SVG Version: 2.1.1 Build 9)  -->
  <defs>
    <style>
      .st0 {
        fill: #8f9194;
      }
    </style>
  </defs>
  <path class="st0" d="M9.75,3.75V.75h-1.5v3h1.5ZM5.82,4.76l-2.12-2.12-1.06,1.06,2.12,2.12,1.06-1.06ZM9.19,12.75l.77-1.71c-.29.14-.62.21-.96.21-1.24,0-2.25-1.01-2.25-2.25s1.01-2.25,2.25-2.25c1.02,0,1.89.68,2.16,1.62l.77-1.71c-.69-.86-1.74-1.41-2.93-1.41-2.07,0-3.75,1.68-3.75,3.75s1.68,3.75,3.75,3.75c.06,0,.13,0,.19,0ZM5.82,13.24l-1.06-1.06-2.12,2.12,1.06,1.06,2.12-2.12ZM3.75,9.75v-1.5H.75v1.5h3ZM14.3,2.64l1.06,1.06-2.12,2.12-1.06-1.06,2.12-2.12ZM15.88,17h2.12l-3.22-9h-2.55l-3.23,9h2.12l.69-2.05h3.38l.69,2.05ZM12.31,13.46l1.15-3.41h.07l1.15,3.41h-2.37Z"/>
</svg>
